X:106
T: My Nanny O
N: O'Farrell's Pocket Companion v.2 (Sky ed. p.60)
N: "Scotch"
M: C
L: 1/8
Q: 120 % "slow"
K: Em
G>A| B2 E2 BcBA|G2 FE/F/ E2 D>E|G3A B>ABd|e2 A>B A2 G>A|
B3d cBAG|A2 B2 g3f|e3d BABd|e2 E>F E2 :|
Bc|d3e d2 cB|g2 d>e d2 gf|e3f g>fga|b2 e>f e2 dc|
B2 g2 dBAG|A2 B2 g3f|e>fed BABd|e2 E>F E2 :|
